svg/icons/terminal.svg

<svg xmlns="http://www.w3.org/2000/svg" width="512" height="512" viewBox="0 0 512 512"><path d="M50 73.5v365h412v-365h-412zm362 315h-312v-218h312v218zm-170.542-108.105l-75.999 76.397-27.461-27.332 48.801-49.065-48.869-49.134 27.461-27.33 76.067 76.464zm134.542 37.133h-113.5v38h113.5v-38z"/></svg>

<?xml version="1.0" encoding="utf-8"?>


<!-- The icon can be used freely in both personal and commercial projects with no attribution required, but always appreciated. 
You may NOT sub-license, resell, rent, redistribute or otherwise transfer the icon without express written permission from iconmonstr.com -->


<!DOCTYPE svg PUBLIC "-//W3C//DTD SVG 1.1//EN" "http://www.w3.org/Graphics/SVG/1.1/DTD/svg11.dtd">

<svg version="1.1" xmlns="http://www.w3.org/2000/svg" xmlns:xlink="http://www.w3.org/1999/xlink" x="0px" y="0px"

	 width="512px" height="512px" viewBox="0 0 512 512" enable-background="new 0 0 512 512" xml:space="preserve">

<path id="window-command-icon" d="M50,73.5v365h412v-365H50z M412,388.5H100v-218h312V388.5z M241.458,280.395l-75.999,76.397

	l-27.461-27.332l48.801-49.065l-48.869-49.134l27.461-27.33L241.458,280.395z M376,317.528H262.5v38H376V317.528z"/>

</svg>
